X: 1
T: Hurtig Galopade
O: Efter br\/odrene Nielsen, Oks\ol/ Vagn Dahl Hansen
R: jig
Z: 2021 John Chambers <jc:trillian.mit.edu>
M: 6/8
L: 1/8
K: G
% = = = = = = = = = = 
V: 1 staves=2
|:\
d2d ddd | b3 g3 | a2g f2e | d2c B2c ||\
d2d ddd | b3 g3 | a2g f2a | "G"g3 :|
|: B3 |\
d2d d2d | e2d B2B | "D"d2c A2B | "G"c2B G2B ||\
d2d d2d | e2d B2B | "D"d2c A2F | "G"G3 :|
% = = = = = = = = = = 
